src/images_karasa_jaga_svg/starmath/res/al21824.svg

<svg height="24" viewBox="0 0 24 24" width="24" xmlns="http://www.w3.org/2000/svg"><path d="m5.9769109 21.633251v.366749h-2.9769109v-20h2.9769109v.3667482h-1.2697724c-.2257373 0-.3903375.05379-.4938004.1613692-.0940572.0977995-.1410858.2591686-.1410858.4841075v17.8581911c0 .508557.2319777.800449.6913205.762835z"/><path d="m7.9769109 21.633251v.366749h-2.9769109v-20h2.9769109v.3667482h-1.2697724c-.2257373 0-.3903375.05379-.4938004.1613692-.0940572.0977995-.1410858.2591686-.1410858.4841075v17.8581911c0 .508557.2319777.800449.6913205.762835z"/><path d="m16.023089 2.3667482v-.3667482h2.976911v20h-2.976911v-.366749h1.269773c.225737 0 .385634-.05379.479691-.161368.103463-.0978.155195-.259169.155195-.484108v-17.8581906c0-.5085575-.236529-.6881671-.691321-.7628362z"/><path d="m18.023089 2.3667482v-.3667482h2.976911v20h-2.976911v-.366749h1.269772c.225737 0 .385635-.05379.479692-.161368.103463-.0978.155195-.259169.155195-.484108v-17.8581906c0-.5085575-.23044-.7628362-.691321-.7628362z"/><path d="m13.745937 8.0790931q.05079 0 .126977-.038097.07619-.050787.190466-.1523727.126977-.1015812.203164-.177768.07619-.088884.241256-.2539539.177768-.1777689.253954-.2539548l.152373.1269774q-.698375.8634447-1.041213 1.1300976-.342838.266652-.72377.266652-.507909 0-.507909-.5206068 0-.3174435.292048-1.4602383-.83805 1.1808882-1.358657 1.5872157-.520607.4063266-1.193586.4063266-.60949 0-.9523286-.3682332-.3428385-.3809322-.3428385-1.0412136 0-.9777249.5460022-1.9935432.5586999-1.0158174 1.4094469-1.6760997.863444-.6602812 1.676099-.6602812.850748 0 1.015818.736468l.139675-.6094908.03809-.038093.774562-.088884.08888.038093q-.0127.050791-.07618.2666523-1.130098 4.1394579-1.130098 4.6092741 0 .1650699.177768.1650699zm-.241257-4.025178q0-.3555369-.215861-.5587002-.203163-.2158614-.5587-.2158614-.698375 0-1.333261.8126541-.622188.812655-.939632 1.701495-.304744.8761437-.304744 1.3713543 0 .4317228.203162.6983748.203164.2539548.533305.2539548.596793 0 1.218982-.6856776.622188-.6983748 1.00312-1.6507035.393629-.9523296.393629-1.7268903z"/><path d="m10.247714 12.695688v-.215861q.95233-.11428 1.942752-.292048l.06349.06349-1.320564 4.926717q.67298-1.053911 1.23168-1.485634.5587-.431723 1.218981-.431723.634886 0 1.053911.431723.419025.431723.419025 1.092004 0 .977725-.609491 1.968148-.596793.977724-1.536424 1.612611-.939633.634885-1.879264.634885-.584096 0-1.1427956-.228559-.5460021-.241257-.5460021-.495211l1.7268907-6.36156q.203163-.711073.203163-.876143 0-.215862-.139675-.266653-.126977-.06349-.685677-.07619zm.571398 8.012264q.647584 0 1.231679-.457118.596793-.457118.952329-1.092004.355537-.634886.5587-1.231679.215862-.596794.215862-.95233 0-.507909-.241257-.799956-.241257-.292048-.647584-.292048-.571398 0-1.092004.546002-.520607.533304-.850748 1.28247-.330141.749166-.520607 1.460239-.190465.698374-.190465 1.104702 0 .431722.584095.431722z"/></svg>

<?xml version="1.0" encoding="UTF-8" standalone="no"?>
<!-- Created with Inkscape (http://www.inkscape.org/) -->

<svg
   xmlns:dc="http://purl.org/dc/elements/1.1/"
   xmlns:cc="http://creativecommons.org/ns#"
   xmlns:rdf="http://www.w3.org/1999/02/22-rdf-syntax-ns#"
   xmlns:svg="http://www.w3.org/2000/svg"
   xmlns="http://www.w3.org/2000/svg"
   xmlns:sodipodi="http://sodipodi.sourceforge.net/DTD/sodipodi-0.dtd"
   xmlns:inkscape="http://www.inkscape.org/namespaces/inkscape"
   version="1.1"
   id="svg2"
   width="24"
   height="24"
   viewBox="0 0 24 24"
   sodipodi:docname="al21824.svg"
   inkscape:version="0.92.3 (2405546, 2018-03-11)"
   inkscape:export-filename="/home/rizmut/Dokumen/Rizmut/Github/libreoffice-style-karasa-jaga/build/next/starmath/res/al21824.png"
   inkscape:export-xdpi="96"
   inkscape:export-ydpi="96">
  <metadata
     id="metadata8">
    <rdf:RDF>
      <cc:Work
         rdf:about="">
        <dc:format>image/svg+xml</dc:format>
        <dc:type
           rdf:resource="http://purl.org/dc/dcmitype/StillImage" />
        <dc:title />
      </cc:Work>
    </rdf:RDF>
  </metadata>
  <defs
     id="defs6" />
  <sodipodi:namedview
     pagecolor="#ffffff"
     bordercolor="#666666"
     borderopacity="1"
     objecttolerance="10"
     gridtolerance="10"
     guidetolerance="10"
     inkscape:pageopacity="0"
     inkscape:pageshadow="2"
     inkscape:window-width="1366"
     inkscape:window-height="714"
     id="namedview4"
     showgrid="true"
     inkscape:zoom="18.4375"
     inkscape:cx="-0.70697815"
     inkscape:cy="10.751553"
     inkscape:window-x="0"
     inkscape:window-y="28"
     inkscape:window-maximized="1"
     inkscape:current-layer="svg2"
     inkscape:snap-global="true">
    <inkscape:grid
       type="xygrid"
       id="grid823" />
  </sodipodi:namedview>
  <path
     inkscape:connector-curvature="0"
     id="path921"
     style="font-style:normal;font-variant:normal;font-weight:normal;font-stretch:normal;font-size:14.1085825px;line-height:1.25;font-family:FreeSerif;-inkscape-font-specification:FreeSerif;letter-spacing:0px;word-spacing:0px;fill:#000000;fill-opacity:1;stroke:none;stroke-width:0.33422887"
     d="M 5.9769109,21.633251 V 22 H 3 V 2 H 5.9769109 V 2.3667482 H 4.7071385 c -0.2257373,0 -0.3903375,0.05379 -0.4938004,0.1613692 C 4.1192809,2.6259169 4.0722523,2.787286 4.0722523,3.0122249 V 20.870416 c 0,0.508557 0.2319777,0.800449 0.6913205,0.762835 z"
     sodipodi:nodetypes="ccccccsssssc" />
  <path
     inkscape:connector-curvature="0"
     id="path923"
     style="font-style:normal;font-variant:normal;font-weight:normal;font-stretch:normal;font-size:14.1085825px;line-height:1.25;font-family:FreeSerif;-inkscape-font-specification:FreeSerif;letter-spacing:0px;word-spacing:0px;fill:#000000;fill-opacity:1;stroke:none;stroke-width:0.33422887"
     d="M 7.9769109,21.633251 V 22 H 5 V 2 H 7.9769109 V 2.3667482 H 6.7071385 c -0.2257373,0 -0.3903375,0.05379 -0.4938004,0.1613692 C 6.1192809,2.6259169 6.0722523,2.787286 6.0722523,3.0122249 V 20.870416 c 0,0.508557 0.2319777,0.800449 0.6913205,0.762835 z"
     sodipodi:nodetypes="ccccccsssssc" />
  <path
     inkscape:connector-curvature="0"
     id="path927"
     style="font-style:normal;font-variant:normal;font-weight:normal;font-stretch:normal;font-size:14.1085825px;line-height:1.25;font-family:FreeSerif;-inkscape-font-specification:FreeSerif;letter-spacing:0px;word-spacing:0px;fill:#000000;fill-opacity:1;stroke:none;stroke-width:0.33422887"
     d="M 16.023089,2.3667482 V 2 H 19 v 20 h -2.976911 v -0.366749 h 1.269773 c 0.225737,0 0.385634,-0.05379 0.479691,-0.161368 0.103463,-0.0978 0.155195,-0.259169 0.155195,-0.484108 V 3.1295844 c 0,-0.5085575 -0.236529,-0.6881671 -0.691321,-0.7628362 z"
     sodipodi:nodetypes="ccccccscsssc" />
  <path
     inkscape:connector-curvature="0"
     id="path929"
     style="font-style:normal;font-variant:normal;font-weight:normal;font-stretch:normal;font-size:14.1085825px;line-height:1.25;font-family:FreeSerif;-inkscape-font-specification:FreeSerif;letter-spacing:0px;word-spacing:0px;fill:#000000;fill-opacity:1;stroke:none;stroke-width:0.33422887"
     d="M 18.023089,2.3667482 V 2 H 21 v 20 h -2.976911 v -0.366749 h 1.269772 c 0.225737,0 0.385635,-0.05379 0.479692,-0.161368 0.103463,-0.0978 0.155195,-0.259169 0.155195,-0.484108 V 3.1295844 c 0,-0.5085575 -0.23044,-0.7628362 -0.691321,-0.7628362 z"
     sodipodi:nodetypes="ccccccscsssc" />
  <path
     inkscape:connector-curvature="0"
     id="path1490"
     style="font-style:italic;font-weight:normal;font-size:14.1085825px;line-height:1.25;font-family:sans-serif;letter-spacing:0px;word-spacing:0px;fill:#000000;fill-opacity:1;stroke:none;stroke-width:0.29499468"
     d="m 13.745937,8.0790931 q 0.05079,0 0.126977,-0.038097 0.07619,-0.050787 0.190466,-0.1523727 0.126977,-0.1015812 0.203164,-0.177768 0.07619,-0.088884 0.241256,-0.2539539 0.177768,-0.1777689 0.253954,-0.2539548 l 0.152373,0.1269774 q -0.698375,0.8634447 -1.041213,1.1300976 -0.342838,0.266652 -0.72377,0.266652 -0.507909,0 -0.507909,-0.5206068 0,-0.3174435 0.292048,-1.4602383 -0.83805,1.1808882 -1.358657,1.5872157 -0.520607,0.4063266 -1.193586,0.4063266 -0.60949,0 -0.9523286,-0.3682332 -0.3428385,-0.3809322 -0.3428385,-1.0412136 0,-0.9777249 0.5460022,-1.9935432 Q 10.190575,4.3205635 11.041322,3.6602812 11.904766,3 12.717421,3 q 0.850748,0 1.015818,0.736468 l 0.139675,-0.6094908 0.03809,-0.038093 0.774562,-0.088884 0.08888,0.038093 q -0.0127,0.050791 -0.07618,0.2666523 -1.130098,4.1394579 -1.130098,4.6092741 0,0.1650699 0.177768,0.1650699 z M 13.50468,4.0539151 q 0,-0.3555369 -0.215861,-0.5587002 -0.203163,-0.2158614 -0.5587,-0.2158614 -0.698375,0 -1.333261,0.8126541 -0.622188,0.812655 -0.939632,1.701495 -0.304744,0.8761437 -0.304744,1.3713543 0,0.4317228 0.203162,0.6983748 0.203164,0.2539548 0.533305,0.2539548 0.596793,0 1.218982,-0.6856776 0.622188,-0.6983748 1.00312,-1.6507035 0.393629,-0.9523296 0.393629,-1.7268903 z" />
  <path
     inkscape:connector-curvature="0"
     d="m 10.247714,12.695688 v -0.215861 q 0.95233,-0.11428 1.942752,-0.292048 l 0.06349,0.06349 -1.320564,4.926717 q 0.67298,-1.053911 1.23168,-1.485634 0.5587,-0.431723 1.218981,-0.431723 0.634886,0 1.053911,0.431723 0.419025,0.431723 0.419025,1.092004 0,0.977725 -0.609491,1.968148 -0.596793,0.977724 -1.536424,1.612611 Q 11.771441,21 10.83181,21 10.247714,21 9.6890144,20.771441 9.1430123,20.530184 9.1430123,20.27623 l 1.7268907,-6.36156 q 0.203163,-0.711073 0.203163,-0.876143 0,-0.215862 -0.139675,-0.266653 -0.126977,-0.06349 -0.685677,-0.07619 z m 0.571398,8.012264 q 0.647584,0 1.231679,-0.457118 0.596793,-0.457118 0.952329,-1.092004 0.355537,-0.634886 0.5587,-1.231679 0.215862,-0.596794 0.215862,-0.95233 0,-0.507909 -0.241257,-0.799956 -0.241257,-0.292048 -0.647584,-0.292048 -0.571398,0 -1.092004,0.546002 -0.520607,0.533304 -0.850748,1.28247 -0.330141,0.749166 -0.520607,1.460239 -0.190465,0.698374 -0.190465,1.104702 0,0.431722 0.584095,0.431722 z"
     style="font-style:italic;font-variant:normal;font-weight:normal;font-stretch:normal;font-size:12.69772434px;line-height:1.25;font-family:FreeSerif;-inkscape-font-specification:'FreeSerif Italic';letter-spacing:0px;word-spacing:0px;fill:#000000;fill-opacity:1;stroke:none;stroke-width:0.89999998"
     id="path817" />
</svg>
